resources/haticons/SVG/forward2.svg

<!-- Generated by IcoMoon.io -->
<svg version="1.1" xmlns="http://www.w3.org/2000/svg" width="24" height="24" viewBox="0 0 24 24">
<title>forward2</title>
<path d="M12 0c-6.627 0-12 5.373-12 12s5.373 12 12 12 12-5.373 12-12-5.373-12-12-12zM12 21.75c-5.385 0-9.75-4.365-9.75-9.75s4.365-9.75 9.75-9.75 9.75 4.365 9.75 9.75-4.365 9.75-9.75 9.75zM7.5 8.25l5.25 3.75-5.25 3.75zM13.5 8.25l5.25 3.75-5.25 3.75z"></path>
</svg>

<svg xmlns="http://www.w3.org/2000/svg" width="24" height="24"><path d="M12 0C5.373 0 0 5.373 0 12s5.373 12 12 12 12-5.373 12-12S18.627 0 12 0zm0 21.75c-5.385 0-9.75-4.365-9.75-9.75S6.615 2.25 12 2.25s9.75 4.365 9.75 9.75-4.365 9.75-9.75 9.75zM7.5 8.25L12.75 12 7.5 15.75zm6 0L18.75 12l-5.25 3.75z"/></svg>
